packages/icons/src/microphone-slash-fill.svg

<svg width="24" height="24" viewBox="0 0 24 24" fill="none" xmlns="http://www.w3.org/2000/svg">
<path d="M5.99951 11C5.99793 12.5729 6.61403 14.0834 7.71516 15.2065C8.8163 16.3297 10.3144 16.9755 11.887 17.005C12.8128 17.0223 13.7209 16.8253 14.5444 16.4396L12.9128 14.8944C12.6479 14.9565 12.3755 14.9919 12.0995 14.9988C11.0563 15.0249 10.0442 14.6423 9.27914 13.9326C8.51408 13.2228 8.05667 12.2422 8.00451 11.2L7.99951 11V10.2413L2.57031 5.0996L3.94556 3.64746L21.5823 20.3503L20.207 21.8024L16.072 17.8864C15.1382 18.4387 14.0943 18.7999 13.0005 18.938L12.9995 22H10.9995V18.938C9.10884 18.6994 7.3654 17.7938 6.0829 16.3843C4.80041 14.9747 4.06305 13.1537 4.00351 11.249L3.99951 11H5.99951Z" fill="black"/>
<path d="M18.8967 15.0535L17.3948 13.6311C17.757 12.8866 17.9647 12.0681 17.9955 11.225L17.9995 11H19.9995C19.9995 12.4344 19.6142 13.8326 18.8967 15.0535Z" fill="black"/>
<path d="M8.15839 4.88383L15.8307 12.1499C15.9417 11.7801 15.9995 11.393 15.9995 11V6L15.9945 5.8C15.9432 4.77504 15.4999 3.80901 14.7563 3.10172C14.0127 2.39444 13.0258 2 11.9995 2C10.9386 2 9.92123 2.42143 9.17108 3.17157C8.69043 3.65222 8.34474 4.2426 8.15839 4.88383Z" fill="black"/>
</svg>

<svg xmlns="http://www.w3.org/2000/svg" width="24" height="24" fill="none" viewBox="0 0 24 24">
  <path fill="#000" d="M6 11a6 6 0 0 0 8.544 5.44l-1.631-1.546A4 4 0 0 1 8.005 11.2L8 11v-.759L2.57 5.1l1.376-1.453L21.582 20.35l-1.375 1.452-4.135-3.916a8.001 8.001 0 0 1-3.071 1.052L12.998 22h-2v-3.062a8.002 8.002 0 0 1-6.995-7.689L4 11h2Zm12.897 4.053-1.502-1.422a6 6 0 0 0 .6-2.406L18 11h2a8 8 0 0 1-1.103 4.053ZM8.158 4.884l7.673 7.266c.11-.37.168-.757.168-1.15V6l-.005-.2a4 4 0 0 0-7.836-.916Z"/>
</svg>
